assets/svg/2709.svg

<svg xmlns="http://www.w3.org/2000/svg" viewBox="0 0 64 64" enable-background="new 0 0 64 64"><path fill="#e6e7e8" d="m63.891 49.29c0 5.698-4.621 10.32-10.322 10.32h-43.25c-5.702 0-10.324-4.622-10.324-10.32v-34.02c0-5.7 4.622-10.324 10.324-10.324h43.24c5.701 0 10.322 4.624 10.322 10.324v34.02"/><path fill="#c0c0c0" d="m21.505 32.475c6.563-6.746 3.647-3.833 10.321-10.324h.237c5.083 4.938 4.306 4.549 10.323 10.324l21.505 16.814c0 5.698-4.621 10.32-10.322 10.32h-43.25c-5.702 0-10.324-4.622-10.324-10.32l21.505-16.814"/><path fill="#e6e7e8" d="m22.779 34.18c5.762-5.759 3.203-3.27 9.06-8.815h.206c4.463 4.217 3.779 3.886 9.06 8.815l18.884 14.357c0 4.87-4.06 8.814-9.06 8.814h-37.972c-5.01 0-9.06-3.944-9.06-8.814l18.882-14.357"/><path fill="#b4b4b5" d="m20.503 35.17c.193.065 11.441 7.625 11.441 7.625l11.598-7.625-2.241-1.922-4.988 3.971-4.289 2.561-1.472-.297-5.89-4.568-3.01-2.111-1.153 2.366"/><path fill="#b2b2b2" d="m63.891 15.269c0-5.7-4.621-10.324-10.322-10.324h-43.25c-5.702 0-10.324 4.624-10.324 10.324l31.12 26.444c.227.223.457.444.708.691h.237c.32-.311.614-.596.893-.868l30.935-26.27"/><path fill="#f2f2f2" d="m60.04 15.619c0-5.01-4.064-9.08-9.08-9.08h-38.03c-5.01 0-9.08 4.064-9.08 9.08l27.368 23.256c.199.194.403.389.625.607h.206c.281-.275.541-.523.784-.764l27.21-23.1"/></svg>

<?xml version="1.0" encoding="UTF-8" standalone="no"?>
<!-- Generator: Adobe Illustrator 16.0.0, SVG Export Plug-In . SVG Version: 6.00 Build 0)  -->

<svg
   xmlns:dc="http://purl.org/dc/elements/1.1/"
   xmlns:cc="http://creativecommons.org/ns#"
   xmlns:rdf="http://www.w3.org/1999/02/22-rdf-syntax-ns#"
   xmlns:svg="http://www.w3.org/2000/svg"
   xmlns="http://www.w3.org/2000/svg"
   xmlns:sodipodi="http://sodipodi.sourceforge.net/DTD/sodipodi-0.dtd"
   xmlns:inkscape="http://www.inkscape.org/namespaces/inkscape"
   version="1.1"
   id="Layer_1"
   x="0px"
   y="0px"
   width="64px"
   height="64px"
   viewBox="0 0 64 64"
   enable-background="new 0 0 64 64"
   xml:space="preserve"
   inkscape:version="0.48.5 r10040"
   sodipodi:docname="2709.svg"
   inkscape:export-filename="D:\TESTINGEMOJI\SVGTEST\2709.png"
   inkscape:export-xdpi="90"
   inkscape:export-ydpi="90"><metadata
   id="metadata4789"><rdf:RDF><cc:Work
       rdf:about=""><dc:format>image/svg+xml</dc:format><dc:type
         rdf:resource="http://purl.org/dc/dcmitype/StillImage" /><dc:title></dc:title></cc:Work></rdf:RDF></metadata><defs
   id="defs4787" /><sodipodi:namedview
   pagecolor="#ffffff"
   bordercolor="#666666"
   borderopacity="1"
   objecttolerance="10"
   gridtolerance="10"
   guidetolerance="10"
   inkscape:pageopacity="0"
   inkscape:pageshadow="2"
   inkscape:window-width="640"
   inkscape:window-height="480"
   id="namedview4785"
   showgrid="false"
   inkscape:zoom="3.6875"
   inkscape:cx="32"
   inkscape:cy="32"
   inkscape:window-x="914"
   inkscape:window-y="402"
   inkscape:window-maximized="0"
   inkscape:current-layer="Layer_1" />
<g
   id="g4769">
	<g
   id="g4771">
		<path
   fill="#E6E7E8"
   d="M63.891,49.289c0,5.698-4.621,10.32-10.322,10.32H10.324C4.622,59.609,0,54.987,0,49.289v-34.02    c0-5.7,4.622-10.324,10.324-10.324h43.244c5.701,0,10.322,4.624,10.322,10.324V49.289z"
   id="path4773" />
		<path
   fill="#C0C0C0"
   d="M21.505,32.475c6.563-6.746,3.647-3.833,10.321-10.324h0.237c5.083,4.938,4.306,4.549,10.323,10.324    l21.505,16.814c0,5.698-4.621,10.32-10.322,10.32H10.324C4.622,59.609,0,54.987,0,49.289L21.505,32.475z"
   id="path4775" />
		<path
   fill="#E6E7E8"
   d="M22.779,34.178c5.762-5.759,3.203-3.27,9.064-8.815h0.206c4.463,4.217,3.779,3.886,9.063,8.815    l18.884,14.357c0,4.87-4.06,8.814-9.063,8.814H12.961c-5.008,0-9.064-3.944-9.064-8.814L22.779,34.178z"
   id="path4777" />
		<path
   fill="#B4B4B5"
   d="M20.503,35.17c0.193,0.065,11.441,7.625,11.441,7.625l11.598-7.625l-2.241-1.922l-4.988,3.971    l-4.289,2.561l-1.472-0.297l-5.89-4.568l-3.006-2.111L20.503,35.17z"
   id="path4779" />
		<path
   fill="#B2B2B2"
   d="M63.891,15.269c0-5.7-4.621-10.324-10.322-10.324H10.324C4.622,4.945,0,9.569,0,15.269l31.118,26.444    c0.227,0.223,0.457,0.444,0.708,0.691h0.237c0.32-0.311,0.614-0.596,0.893-0.868L63.891,15.269z"
   id="path4781" />
	</g>
	<path
   fill="#F2F2F2"
   d="M60.039,15.619c0-5.014-4.064-9.079-9.079-9.079H12.929c-5.014,0-9.079,4.064-9.079,9.079l27.368,23.256   c0.199,0.194,0.403,0.389,0.625,0.607h0.206c0.281-0.275,0.541-0.523,0.784-0.764L60.039,15.619z"
   id="path4783" />
</g>
</svg>
